X:1
T:The Manchester Angel
M:6/8
L:1/8
K:F
 E| F2 F F2 G| A2 Bc-B A|G-F E D2 D| D3- D z c| d2 e ffe| d2 d c2 d|\
 B2 c A2 G| A3- A z c/2c/2| d2 e ffe| d3 c2 d| BBc AAG| A2 zc-B A|\
 G2 A B2 c| d2 cA-G F|G-F E D2 D| D3- D2||
